u/stations/jre/img/03C.svg

<svg xmlns="http://www.w3.org/2000/svg" xmlns:xlink="http://www.w3.org/1999/xlink" xml:space="preserve" width="70" height="30"><defs><clipPath id="b"><path d="M1 .625h14v18.75H1Zm0 0"/></clipPath><clipPath id="c"><path d="M16 .625h18v18.75H16Zm0 0"/></clipPath><clipPath id="a"><path d="M0 0h35v20H0z"/></clipPath><clipPath id="e"><path d="M3 .762h17v26.875H3Zm0 0"/></clipPath><clipPath id="f"><path d="M23 .762h17v26.875H23Zm0 0"/></clipPath><clipPath id="d"><path d="M0 0h43v28H0z"/></clipPath><linearGradient id="j"><stop offset="0" style="stop-color:#cf1126;stop-opacity:1"/><stop offset="1" style="stop-color:#eb5c01;stop-opacity:1"/></linearGradient><linearGradient xlink:href="#j" id="k" x1="70" x2="30" y1="17.5" y2="17.5" gradientUnits="userSpaceOnUse"/><linearGradient xlink:href="#j" id="l" x1="70" x2="30" y1="17.5" y2="17.5" gradientTransform="matrix(-1 0 0 1 70 0)" gradientUnits="userSpaceOnUse"/><g id="h" clip-path="url(#a)"><g clip-path="url(#b)"><path d="M14.738 18.797a17 17 0 0 1-4.004.578c-5.687 0-9.656-2.926-9.656-9.047 0-6.2 3.668-9.664 9.656-9.664a11.6 11.6 0 0 1 3.965.73l-.261 3.044a7.17 7.17 0 0 0-3.817-.961c-3.629 0-5.914 2.847-5.914 6.543 0 3.695 2.207 6.468 5.988 6.468 1.387 0 3.032-.308 3.856-.77Zm0 0"/></g><g clip-path="url(#c)"><path d="M25.316.625c5.54 0 8.606 3.852 8.606 9.316 0 5.47-3.067 9.399-8.606 9.399-5.652 0-8.609-3.852-8.609-9.399 0-5.543 2.996-9.316 8.61-9.316m0 15.863c3.593 0 4.94-3.312 4.94-6.547 0-3.23-1.425-6.464-4.94-6.464-3.52 0-4.942 3.27-4.942 6.464 0 3.274 1.348 6.547 4.941 6.547"/></g></g><g id="i" clip-path="url(#d)"><g clip-path="url(#e)"><path d="M3.45 22.348c1.784.71 3.722 1.195 5.769 1.195 2.16 0 5.469-1.047 5.469-3.684 0-3.054-2.418-4.062-5.731-4.062H6.426v-4.09h2.383c3.5 0 5.773-1.16 5.773-3.43 0-2.605-2.125-3.422-4.473-3.422-2.043 0-4.015.485-5.84 1.375l-.296-4.167C6.05 1.243 8.547.762 11.23.762c3.204 0 8.56 1.113 8.56 6.66 0 3.535-2.196 5.21-4.837 6.223v.07c3.313.445 4.95 3.012 4.95 6.176 0 6.18-5.622 7.746-9.938 7.746-2.274 0-4.88-.297-6.817-.856z"/></g><g clip-path="url(#f)"><path d="M23.395 22.348c1.789.71 3.726 1.195 5.773 1.195 2.16 0 5.473-1.047 5.473-3.684 0-3.054-2.422-4.062-5.73-4.062h-2.532v-4.09h2.379c3.5 0 5.773-1.16 5.773-3.43 0-2.605-2.125-3.422-4.468-3.422-2.047 0-4.02.485-5.844 1.375l-.301-4.167C26.004 1.243 28.5.762 31.176.762c3.203 0 8.562 1.113 8.562 6.66 0 3.535-2.195 5.21-4.84 6.223v.07c3.317.445 4.954 3.012 4.954 6.176 0 6.18-5.618 7.746-9.938 7.746-2.27 0-4.875-.297-6.816-.856z"/></g></g></defs><path d="M50 5s-4.794-.069-9.736 2.402S30 15.833 30 25v5h10v-5c0-5.833 2.179-7.374 4.736-8.652C47.294 15.068 50 15 50 15h20V5Z" style="fill:url(#k);fill-opacity:1;paint-order:fill markers stroke"/><path d="M20 5s4.794-.069 9.736 2.402S40 15.833 40 25v5H30v-5c0-5.833-2.179-7.374-4.736-8.652C22.706 15.068 20 15 20 15H0V5Z" style="fill:url(#l);fill-opacity:1;paint-order:fill markers stroke"/></svg>

<?xml version="1.0" encoding="UTF-8" standalone="no"?>
<!-- Created with Inkscape (http://www.inkscape.org/) -->

<svg
   width="70"
   height="30"
   viewBox="0 0 70 30"
   version="1.1"
   id="svg1"
   inkscape:version="1.4 (e7c3feb1, 2024-10-09)"
   sodipodi:docname="03C.svg"
   xml:space="preserve"
   xmlns:inkscape="http://www.inkscape.org/namespaces/inkscape"
   xmlns:sodipodi="http://sodipodi.sourceforge.net/DTD/sodipodi-0.dtd"
   xmlns:xlink="http://www.w3.org/1999/xlink"
   xmlns="http://www.w3.org/2000/svg"
   xmlns:svg="http://www.w3.org/2000/svg"><sodipodi:namedview
     id="namedview1"
     pagecolor="#ffffff"
     bordercolor="#000000"
     borderopacity="0.25"
     inkscape:showpageshadow="2"
     inkscape:pageopacity="0.0"
     inkscape:pagecheckerboard="0"
     inkscape:deskcolor="#d1d1d1"
     inkscape:document-units="px"
     inkscape:zoom="1.200281"
     inkscape:cx="60.81911"
     inkscape:cy="18.32905"
     inkscape:window-width="1440"
     inkscape:window-height="471"
     inkscape:window-x="-1"
     inkscape:window-y="26"
     inkscape:window-maximized="0"
     inkscape:current-layer="layer1" /><defs
     id="defs1"><linearGradient
       id="linearGradient18"
       inkscape:collect="always"><stop
         style="stop-color:#cf1126;stop-opacity:1;"
         offset="0"
         id="stop18" /><stop
         style="stop-color:#eb5c01;stop-opacity:1;"
         offset="1"
         id="stop19" /></linearGradient><linearGradient
       id="linearGradient2"
       x1="66.2"
       x2="47.8"
       y1="10.8"
       y2="29.2"
       gradientUnits="userSpaceOnUse"
       gradientTransform="translate(-0.0327,-30.0017)"><stop
         stop-color="#03bb85"
         offset="0"
         id="stop1" /><stop
         stop-color="#03c18a"
         offset="1"
         id="stop2" /></linearGradient><clipPath
       clipPathUnits="userSpaceOnUse"
       id="clipPath24"><rect
         style="opacity:0.491601;fill:#ff0000;fill-opacity:1;stroke:none;stroke-width:3.19027;stroke-dasharray:none;stroke-opacity:1;paint-order:fill markers stroke"
         id="rect24"
         width="93.2"
         height="93.2"
         x="53.10686"
         y="179.6678" /></clipPath><clipPath
       clipPathUnits="userSpaceOnUse"
       id="clipPath24-7"><rect
         style="opacity:0.491601;fill:#ff0000;fill-opacity:1;stroke:none;stroke-width:3.19027;stroke-dasharray:none;stroke-opacity:1;paint-order:fill markers stroke"
         id="rect24-9"
         width="93.2"
         height="93.2"
         x="53.10686"
         y="179.6678" /></clipPath><clipPath
       clipPathUnits="userSpaceOnUse"
       id="clipPath24-1"><rect
         style="opacity:0.491601;fill:#ff0000;fill-opacity:1;stroke:none;stroke-width:3.19027;stroke-dasharray:none;stroke-opacity:1;paint-order:fill markers stroke"
         id="rect24-0"
         width="93.2"
         height="93.2"
         x="53.10686"
         y="179.6678" /></clipPath><clipPath
       clipPathUnits="userSpaceOnUse"
       id="clipPath24-7-7"><rect
         style="opacity:0.491601;fill:#ff0000;fill-opacity:1;stroke:none;stroke-width:3.19027;stroke-dasharray:none;stroke-opacity:1;paint-order:fill markers stroke"
         id="rect24-9-0"
         width="93.2"
         height="93.2"
         x="53.10686"
         y="179.6678" /></clipPath><clipPath
       id="b"><path
         d="M1 .625h14v18.75H1Zm0 0"
         id="path1" /></clipPath><clipPath
       id="c"><path
         d="M16 .625h18v18.75H16Zm0 0"
         id="path2" /></clipPath><clipPath
       id="a"><path
         d="M0 0h35v20H0z"
         id="path3" /></clipPath><clipPath
       id="e"><path
         d="M3 .762h17v26.875H3Zm0 0"
         id="path4" /></clipPath><clipPath
       id="f"><path
         d="M23 .762h17v26.875H23Zm0 0"
         id="path5" /></clipPath><clipPath
       id="d"><path
         d="M0 0h43v28H0z"
         id="path6" /></clipPath><clipPath
       id="g"><path
         d="M0 0h75v75H0z"
         id="path7-7" /></clipPath><g
       id="h"
       clip-path="url(#a)"><g
         clip-path="url(#b)"
         id="g8"><path
           d="M14.738 18.797a17 17 0 0 1-4.004.578c-5.687 0-9.656-2.926-9.656-9.047 0-6.2 3.668-9.664 9.656-9.664 1.352.008 2.692.258 3.965.73l-.261 3.044a7.17 7.17 0 0 0-3.817-.961c-3.629 0-5.914 2.847-5.914 6.543 0 3.695 2.207 6.468 5.988 6.468 1.387 0 3.032-.308 3.856-.77Zm0 0"
           id="path8-9" /></g><g
         clip-path="url(#c)"
         id="g9"><path
           d="M25.316.625c5.54 0 8.606 3.852 8.606 9.316 0 5.47-3.067 9.399-8.606 9.399-5.652 0-8.609-3.852-8.609-9.399 0-5.543 2.996-9.316 8.61-9.316m0 15.863c3.593 0 4.94-3.312 4.94-6.547 0-3.23-1.425-6.464-4.94-6.464-3.52 0-4.942 3.27-4.942 6.464 0 3.274 1.348 6.547 4.941 6.547"
           id="path9" /></g></g><g
       id="i"
       clip-path="url(#d)"><g
         clip-path="url(#e)"
         id="g10"><path
           d="M3.45 22.348c1.784.71 3.722 1.195 5.769 1.195 2.16 0 5.469-1.047 5.469-3.684 0-3.054-2.418-4.062-5.731-4.062H6.426v-4.09h2.383c3.5 0 5.773-1.16 5.773-3.43 0-2.605-2.125-3.422-4.473-3.422-2.043 0-4.015.485-5.84 1.375l-.296-4.167C6.05 1.243 8.547.762 11.23.762c3.204 0 8.56 1.113 8.56 6.66 0 3.535-2.196 5.21-4.837 6.223v.07c3.313.445 4.95 3.012 4.95 6.176 0 6.18-5.622 7.746-9.938 7.746-2.274 0-4.88-.297-6.817-.856z"
           id="path10" /></g><g
         clip-path="url(#f)"
         id="g11"><path
           d="M23.395 22.348c1.789.71 3.726 1.195 5.773 1.195 2.16 0 5.473-1.047 5.473-3.684 0-3.054-2.422-4.062-5.73-4.062h-2.532v-4.09h2.379c3.5 0 5.773-1.16 5.773-3.43 0-2.605-2.125-3.422-4.468-3.422-2.047 0-4.02.485-5.844 1.375l-.301-4.167C26.004 1.243 28.5.762 31.176.762c3.203 0 8.562 1.113 8.562 6.66 0 3.535-2.195 5.21-4.84 6.223v.07c3.317.445 4.954 3.012 4.954 6.176 0 6.18-5.618 7.746-9.938 7.746-2.27 0-4.875-.297-6.816-.856z"
           id="path11" /></g></g><g
       id="j"
       clip-path="url(#g)"><path
         fill="#0171C5"
         d="M0 68.5v-62A6.5 6.5 0 0 1 6.5 0h62A6.5 6.5 0 0 1 75 6.5v62a6.5 6.5 0 0 1-6.5 6.5h-62A6.5 6.5 0 0 1 0 68.5m0 0"
         id="path12" /><path
         fill="#FFF"
         d="M7.5 67.5v-60h60v60Zm0 0"
         id="path13" /><use
         xlink:href="#h"
         transform="translate(20 10)"
         id="use13" /><use
         xlink:href="#i"
         transform="translate(16 33)"
         id="use14" /></g><path
       id="a-4"
       d="M8.031-12.937V0H3.72v-12.937H.172v-3.657h11.406v3.657Zm0 0" /><path
       id="b-2"
       d="M6.422-11.344q-.002 1.502.266 2.735.262 1.237.765 2.14.497.892 1.188 1.39a2.63 2.63 0 0 0 1.562.485q.844.001 1.547-.484.704-.5 1.172-1.39.48-.904.75-2.141c.187-.82.281-1.735.281-2.735q0-1.465-.281-2.703-.27-1.247-.75-2.125-.469-.89-1.172-1.39a2.62 2.62 0 0 0-1.547-.5 2.6 2.6 0 0 0-1.562.5q-.69.5-1.188 1.39-.503.878-.766 2.125c-.18.824-.265 1.727-.265 2.703m-5.828 0q0-2.701.703-4.906.716-2.204 1.984-3.75a9.06 9.06 0 0 1 3.032-2.422c1.164-.57 2.46-.86 3.89-.86 1.395 0 2.68.29 3.86.86A8.7 8.7 0 0 1 17.093-20q1.266 1.546 1.97 3.75.702 2.204.703 4.906 0 2.706-.703 4.906-.704 2.205-1.97 3.782a8.55 8.55 0 0 1-3.03 2.437c-1.18.559-2.465.844-3.86.844-1.43 0-2.726-.285-3.89-.844A8.9 8.9 0 0 1 3.28-2.656C2.437-3.707 1.773-4.97 1.297-6.437.828-7.907.594-9.54.594-11.344m0 0" /><path
       id="c-6"
       d="M7.953-17.64H4.656v-4.985h9.172V0H7.953Zm0 0" /><linearGradient
       inkscape:collect="always"
       xlink:href="#linearGradient18"
       id="linearGradient19"
       x1="70.00001"
       y1="17.4999"
       x2="29.99999"
       y2="17.4999"
       gradientUnits="userSpaceOnUse" /><linearGradient
       inkscape:collect="always"
       xlink:href="#linearGradient18"
       id="linearGradient20"
       gradientUnits="userSpaceOnUse"
       x1="70.00001"
       y1="17.4999"
       x2="29.99999"
       y2="17.4999"
       gradientTransform="matrix(-1,0,0,1,70,0)" /></defs><g
     inkscape:label="Layer 1"
     inkscape:groupmode="layer"
     id="layer1"><path
       d="M 50,5 C 50,5 45.206,4.931 40.264,7.402 35.322,9.873 30,15.833 30,25 V 30 H 40 V 25 C 40,19.167 42.179,17.626 44.736,16.348 47.294,15.068 50,15 50,15 H 70 V 5 Z"
       style="fill:url(#linearGradient19);fill-opacity:1;paint-order:fill markers stroke"
       id="path1-2" /><path
       d="M 20,5 C 20,5 24.794,4.931 29.736,7.402 34.678,9.873 40,15.833 40,25 V 30 H 30 V 25 C 30,19.167 27.821,17.626 25.264,16.348 22.706,15.068 20,15 20,15 H 0 V 5 Z"
       style="fill:url(#linearGradient20);fill-opacity:1;paint-order:fill markers stroke"
       id="path19" /></g></svg>
